X:1
T:Bonaparte's Retreat (2x)
S:Fiddler's Fakebook, arr. T. Traub 10-16-02
M:C|
L:1/4
K:D
AB |\
"D"d2 de | dBAB | dBAF | EDAB |\
"D"d2 df | d2AB | dBAF | ED |]
DE |\
"D"F2 F>F | AFED | "A"E2 E/D/E/F/ | GFED |\
"D"F2 F>F | AFED | "A"EF/G/ FE | "D"D2 |]
